X: 11
T: Missa Assumpta est Maria / Sanctus
N: Derived from Rue1003d-Missa_Assumpta_est_Maria-Sanctus.krn
C: Pierre de la Rue
%%abc-version 2.0
%%abcx-abcm2ps-target-version 5.9.1 (29 Sep 2008)
%%abc-creator hum2abc beta
%%abcx-conversion-date 2019/02/17 08:01:09
%%abc-edited-by Jesse Rodin
%%abc-edited-by Chris Gage 11-26-2012
%%abcx-initial-encoding-date 2013/05/19/
%%humdrum-veritas 4105412719
%%humdrum-veritas-data 3526630598
%%linebreak <none>
%%barnumbers 0
L: 1/4
M: 3/1
Q: 1/2=120
%%staves [1 2 3 4]
V: 1 clef=treble-8
V: 2 clef=treble-8
V: 3 clef=bass
V: 4 clef=bass
K: F
[V:1] c8c4 | 
[V:2] G8A4 | 
[V:3] C,8C,4 | 
[V:4] C,8F,,4- | 
[V:1] A8c4 | 
[V:2] c8A4 | 
[V:3] C,8E,4 | 
[V:4] F,,4C,8 | 
[V:1] d4f6e2 | 
[V:2] B3cdcBAB4 | 
[V:3] F,12 | 
[V:4] B,,8D,4 | 
[V:1] e4g6e2 | 
[V:2] c6BAB4 | 
[V:3] G,12 | 
[V:4] C,8G,,4 | 
[V:1] e12 | 
[V:2] c4z2c4c2 | 
[V:3] G,4G,2A,4G,F, | 
[V:4] C,4C,2A,,3B,,C,2- | 
[V:1] z4z4c4 | 
[V:2] A2d3cB4A2 | 
[V:3] E,2G,4F,3E,E,2 | 
[V:4] C,2G,,2B,,2D,2C,4 | 
[V:1] d8f4 | 
[V:2] B4B2A4A2 | 
[V:3] F,12 | 
[V:4] B,,4D,4D,C,B,,A,, | 
[V:1] g4gfedc2d2 | 
[V:2] B8c2F2- | 
[V:3] z12 | 
[V:4] G,,8A,,4 | 
[V:1] d8B4 | 
[V:2] F2G3FD2E4 | 
[V:3] z12 | 
[V:4] B,,4G,,8 | 
[V:1] A2c4BAG4 | 
[V:2] F2A3GF4E2 | 
[V:3] z12 | 
[V:4] F,,4A,,2B,,2C,4 | 
[V:1] F8A4- | 
[V:2] F8c4- | 
[V:3] F,12 | 
[V:4] F,,8z4 | 
[V:1] A4G8 | 
[V:2] c12 | 
[V:3] E,12 | 
[V:4] C,12- | 
[V:1] c8A4- | 
[V:2] G4A6F2 | 
[V:3] C,12 | 
[V:4] C,4F,,8 | 
[V:1] A4d8 | 
[V:2] F8A4- | 
[V:3] D,8F,4- | 
[V:4] D,,8D,4- | 
[V:1] f8d4- | 
[V:2] A4B8 | 
[V:3] F,12 | 
[V:4] D,4B,,8 | 
[V:1] d4B8 | 
[V:2] d12 | 
[V:3] G,8F,4- | 
[V:4] G,,8D,4- | 
[V:1] f8d4- | 
[V:2] A4B4F4 | 
[V:3] F,4D,8 | 
[V:4] D,4B,,8 | 
[V:1] d4g8 | 
[V:2] B8G4 | 
[V:3] D,8C,4 | 
[V:4] G,,8E,,4 | 
[V:1] f8d4 | 
[V:2] z4d4B4 | 
[V:3] D,8F,4- | 
[V:4] D,,4B,,8 | 
[V:1] c8f4- | 
[V:2] c4A8 | 
[V:3] F,12 | 
[V:4] A,,4F,,8 | 
[V:1] f4d4f4 | 
[V:2] d4B4A3B | 
[V:3] F,12 | 
[V:4] B,,8D,4 | 
[V:1] e2d3cc4=B2 | 
[V:2] c2B2c2C2D4 | 
[V:3] G,8z4 | 
[V:4] C,2G,,2C,4G,,4 | 
[V:1] c8z4 | 
[V:2] C2G2A2c4=B2 | 
[V:3] E,6C,2D,4 | 
[V:4] z12 | 
[V:1] e3fg2a4g2 | 
[V:2] c8z4 | 
[V:3] C,3D,E,2F,4E,2 | 
[V:4] z4z4C,4 | 
[V:1] a4a2f3ed2- | 
[V:2] c4A4B3A | 
[V:3] F,6D,3E,F,2 | 
[V:4] F,,8B,,4 | 
[V:1] d2f2d2f2e2c2 | 
[V:2] F2B4B2G2c2- | 
[V:3] D,3E,F,2D,2G,4- | 
[V:4] B,,8C,4- | 
[V:1] g6e2f3g | 
[V:2] c2c2B3AF4 | 
[V:3] G,2C,2G,4A,4 | 
[V:4] C,4G,,4D,4 | 
[V:1] e2d3cc4B2 | 
[V:2] z4z4G4- | 
[V:3] z2G,3F,E,2D,4 | 
[V:4] C,2B,,2C,4G,,4 | 
[V:1] c2e2d3f2ecd | 
[V:2] G4B4c3B | 
[V:3] C,4F,3G,A,G,E,F, | 
[V:4] z2C,2B,,3A,,F,,G,,_A,,G,, | 
[V:1] _e2d4c3A=B2 | 
[V:2] B2A2G2F2G4 | 
[V:3] G,2F,2_E,2C,2D,4 | 
[V:4] _E,,2F,,2G,,2_A,,2G,,4 | 
[V:1] c12 ||  
[V:2] G12 ||  
[V:3] C,12 ||  
[V:4] C,,12 & C,12 ||  
[V:1]  [K:F] [K:clef=treble-8][M:3/1]z12 | 
[V:2]  [K:F] [K:clef=treble-8][M:3/1]c4c3BA2G2- | 
[V:3]  [K:F] [K:clef=bass][M:3/1]z12 | 
[V:4]  [K:F] [K:clef=bass][M:3/1]C,8C,4 | 
[V:1] z12 | 
[V:2] GFD2E2C3DE2 | 
[V:3] z12 | 
[V:4] B,,4C,3B,,A,,2G,,2 | 
[V:1] z12 | 
[V:2] D2C2G4F2A2- | 
[V:3] z12 | 
[V:4] G,,2C,3B,,G,,2A,,2F,,2- | 
[V:1] z12 | 
[V:2] ABc3BAGA2G2- | 
[V:3] z12 | 
[V:4] F,,G,,A,,2G,,2F,,2C,4 | 
[V:1] z12 | 
[V:2] GBA4G4^F2 | 
[V:3] z12 | 
[V:4] B,,2D,2C,B,,A,,G,,A,,4 | 
[V:1] z12 | 
[V:2] G12 | 
[V:3] z12 | 
[V:4] G,,4z2G,,3A,,B,,2 | 
[V:1] z12 | 
[V:2] z2F3GA2B2c2- | 
[V:3] z12 | 
[V:4] C,2D,3C,A,,2D,2C,2 | 
[V:1] z12 | 
[V:2] cBG2F2B4B2 | 
[V:3] z12 | 
[V:4] E,4D,3C,B,,A,,G,,2 | 
[V:1] z12 | 
[V:2] A3GFED2C2G2- | 
[V:3] z12 | 
[V:4] F,,2C,4B,,2C,3B,, | 
[V:1] z12 | 
[V:2] G2F2G3FG2A2 | 
[V:3] z12 | 
[V:4] C,2D,2E,2C,3B,,C,2 | 
[V:1] z12 | 
[V:2] B2G4c4=B2 | 
[V:3] z12 | 
[V:4] D,2E,2C,4D,4 | 
[V:1] z12 ||  
[V:2] c12 ||  
[V:3] z12 ||  
[V:4] C,12 ||  
[V:1]  [K:F] [K:clef=treble-8][M:3/1]c6c2e4 | 
[V:2]  [K:F] [K:clef=treble-8][M:3/1]z12 | 
[V:3]  [K:F] [K:clef=bass][M:3/1]z4z4G,4- | 
[V:4]  [K:F] [K:clef=bass][M:3/1]z12 | 
[V:1] d4c3de2d2- | 
[V:2] z12 | 
[V:3] G,2G,2A,4G,4 | 
[V:4] z12 | 
[V:1] d2cBA4z2d2- | 
[V:2] z12 | 
[V:3] F,8F,4 | 
[V:4] z12 | 
[V:1] d2e2f2g3fed | 
[V:2] z12 | 
[V:3] G,4A,2G,2B,4 | 
[V:4] z12 | 
[V:1] c2f4e3cd2 | 
[V:2] z12 | 
[V:3] A,3D,A,3F,G,4 | 
[V:4] z12 | 
[V:1] e2c4f4e2- | 
[V:2] z12 | 
[V:3] C,4F,4D,2G,2- | 
[V:4] z12 | 
[V:1] ecd2e2c2f2e2- | 
[V:2] z12 | 
[V:3] G,F,E,D,C,2F,4G,2 | 
[V:4] z12 | 
[V:1] ecd2e2f3edc | 
[V:2] z12 | 
[V:3] A,2B,2G,2A,3G,F,E, | 
[V:4] z12 | 
[V:1] d2e3dc4=B2 | 
[V:2] z12 | 
[V:3] F,2G,2C,4D,4 | 
[V:4] z12 | 
[V:1] c12 ||  
[V:2] z12 ||  
[V:3] C,12 ||  
[V:4] z12 ||  
[V:1]  [K:F] [K:clef=treble-8][M:2/1]c8- | 
[V:2]  [K:F] [K:clef=treble-8][M:2/1]G8- | 
[V:3]  [K:F] [K:clef=bass][M:2/1]C,8- | 
[V:4]  [K:F] [K:clef=bass][M:2/1]C,8- | 
[V:1] c4A4 | 
[V:2] G4c4 | 
[V:3] C,8 | 
[V:4] C,4F,,4 | 
[V:1] A8 | 
[V:2] c8- | 
[V:3] C,8 | 
[V:4] F,,8 | 
[V:1] A4G4- | 
[V:2] c8 | 
[V:3] E,8- | 
[V:4] C,8- | 
[V:1] G4c4- | 
[V:2] z4G4 | 
[V:3] E,8 | 
[V:4] C,8 | 
[V:1] c8 | 
[V:2] A6F2 | 
[V:3] F,8 | 
[V:4] F,,4F,4- | 
[V:1] d4f4 | 
[V:2] A4B4 | 
[V:3] F,8 | 
[V:4] F,2E,2D,4 | 
[V:1] e4g4- | 
[V:2] c4G3A | 
[V:3] G,8- | 
[V:4] C,8 | 
[V:1] g2fed4 | 
[V:2] B2c4=B2 | 
[V:3] G,8- | 
[V:4] G,,8 | 
[V:1] e8 | 
[V:2] c8- | 
[V:3] G,8 | 
[V:4] C,8 | 
[V:1] e4c4- | 
[V:2] c4F4 | 
[V:3] A,8- | 
[V:4] C,2A,,4F,,2 | 
[V:1] c2F2F4 | 
[V:2] c8 | 
[V:3] A,8 | 
[V:4] F,,4F,4- | 
[V:1] z2f2d2f2- | 
[V:2] z4c4- | 
[V:3] F,8 | 
[V:4] F,2E,D,F,4 | 
[V:1] f2ede2g2- | 
[V:2] c2BAG2c2 | 
[V:3] G,8- | 
[V:4] C,6B,,A,, | 
[V:1] g2f4e2 | 
[V:2] B2c2d2c2 | 
[V:3] G,8 | 
[V:4] G,,2A,,2B,,2C,2 | 
[V:1] f8- | 
[V:2] A2c3BAG | 
[V:3] F,8 | 
[V:4] F,,8 | 
[V:1] f8 | 
[V:2] F4A2B2 | 
[V:3] z4F,4 | 
[V:4] z4D,4 | 
[V:1] z8 | 
[V:2] c6BA | 
[V:3] E,4C,4 | 
[V:4] C,4A,,4 | 
[V:1] z8 | 
[V:2] G2F4B2- | 
[V:3] D,3E,F,2G,2- | 
[V:4] B,,3C,D,2G,,2- | 
[V:1] z4d4 | 
[V:2] B2A4G2 | 
[V:3] G,2F,4D,2 | 
[V:4] G,,2D,3C,B,,2 | 
[V:1] c4A4 | 
[V:2] AG^FE^F4 | 
[V:3] E,D,C,B,,C,4 | 
[V:4] A,,4A,,4 | 
[V:1] B3cd2G2- | 
[V:2] G8 | 
[V:3] D,8- | 
[V:4] G,,8- | 
[V:1] G2d3cB2 | 
[V:2] z2B3AG2 | 
[V:3] D,8 | 
[V:4] G,,8 | 
[V:1] A2f3ed2 | 
[V:2] F8 | 
[V:3] z8 | 
[V:4] z2D,3C,B,,2 | 
[V:1] c2F2a4- | 
[V:2] z4c4- | 
[V:3] F,8 | 
[V:4] A,,2B,,2F,,4- | 
[V:1] a2g2f4 | 
[V:2] c4A3B | 
[V:3] F,8 | 
[V:4] F,,4F,4 | 
[V:1] e3fg2e2 | 
[V:2] c4B2c2 | 
[V:3] G,8- | 
[V:4] C,3B,,G,,2C,2- | 
[V:1] d4c2e2- | 
[V:2] G4C2G2- | 
[V:3] G,8- | 
[V:4] C,2=B,,2C,4 | 
[V:1] e2d4^c2 | 
[V:2] G2F2E4 | 
[V:3] G,8 | 
[V:4] z4C,4 | 
[V:1] d4f4- | 
[V:2] D8 | 
[V:3] A,8 | 
[V:4] F,6D,2 | 
[V:1] f2d2d4- | 
[V:2] z8 | 
[V:3] F,8 | 
[V:4] D,6G,,2 | 
[V:1] d2B2B4 | 
[V:2] D8 | 
[V:3] G,8 | 
[V:4] G,,8 | 
[V:1] z2c4A2 | 
[V:2] C8 | 
[V:3] E,4F,4 | 
[V:4] A,,8 | 
[V:1] B3cd2e2 | 
[V:2] D6C2- | 
[V:3] G,8 | 
[V:4] G,,3A,,B,,2C,2 | 
[V:1] f2d4c2- | 
[V:2] C2D2B,2C2 | 
[V:3] A,4G,2G,2- | 
[V:4] F,,2F,4E,2 | 
[V:1] c2B2c2e2 | 
[V:2] D4E4 | 
[V:3] G,2F,2G,4- | 
[V:4] D,4C,4 | 
[V:1] d2g4f2 | 
[V:2] z2D6 | 
[V:3] G,4A,4 | 
[V:4] G,,4D,4 | 
[V:1] e4d4- | 
[V:2] E2C2F2B2- | 
[V:3] G,4F,4- | 
[V:4] z4B,,4- | 
[V:1] d2c2c4- | 
[V:2] B2A2F4 | 
[V:3] F,2E,2C,4 | 
[V:4] B,,2C,2A,,4 | 
[V:1] c4=B4 | 
[V:2] G8 | 
[V:3] D,8 | 
[V:4] G,,8 | 
[V:1] c8 ||  
[V:2] G8 ||  
[V:3] C,8 ||  
[V:4] C,8 ||  
[V:1]  [K:F] [K:clef=treble-8][M:2/1]z8 | 
[V:2]  [K:F] [K:clef=treble-8][M:2/1]z8 | 
[V:3]  [K:F] [K:clef=bass][M:2/1]C,8 | 
[V:4]  [K:F] [K:clef=bass][M:2/1]C,8 | 
[V:1] z8 | 
[V:2] z8 | 
[V:3] E,4F,4 | 
[V:4] C,4D,4 | 
[V:1] z8 | 
[V:2] z8 | 
[V:3] G,8 | 
[V:4] _E,2D,C,B,,2C,2- | 
[V:1] z8 | 
[V:2] z8 | 
[V:3] C,8 | 
[V:4] C,2F,,4C,2- | 
[V:1] z8 | 
[V:2] z8 | 
[V:3] G,8 | 
[V:4] C,2B,,2C,2_E,2- | 
[V:1] z8 | 
[V:2] z8 | 
[V:3] F,4E,4 | 
[V:4] E,D,D,4C,2 | 
[V:1] z8 | 
[V:2] z8 | 
[V:3] D,2F,3G,A,2 | 
[V:4] D,8 | 
[V:1] z8 | 
[V:2] z8 | 
[V:3] D,2G,4F,2 | 
[V:4] z2B,,3C,D,2 | 
[V:1] z8 | 
[V:2] z8 | 
[V:3] G,2E,3F,G,2 | 
[V:4] G,,2C,4B,,2 | 
[V:1] c8 | 
[V:2] z8 | 
[V:3] C,2G,4A,2- | 
[V:4] C,6A,,2- | 
[V:1] e4f4 | 
[V:2] z8 | 
[V:3] A,2G,4F,2- | 
[V:4] A,,B,,C,2F,,2A,,2 | 
[V:1] g8 | 
[V:2] z8 | 
[V:3] F,2E,D,E,4 | 
[V:4] G,,8 | 
[V:1] c8 | 
[V:2] A8 | 
[V:3] F,8 | 
[V:4] F,,8 | 
[V:1] g8 | 
[V:2] B4c4 | 
[V:3] z8 | 
[V:4] z8 | 
[V:1] f4e4 | 
[V:2] A2d4^c2 | 
[V:3] z8 | 
[V:4] z8 | 
[V:1] d2f3ga2 | 
[V:2] d8 | 
[V:3] z8 | 
[V:4] z8 | 
[V:1] d2g4f2 | 
[V:2] z2B3cd2 | 
[V:3] z8 | 
[V:4] z8 | 
[V:1] g2e3fg2 | 
[V:2] G2c4B2 | 
[V:3] z8 | 
[V:4] z8 | 
[V:1] c8 | 
[V:2] c4c2A2- | 
[V:3] z8 | 
[V:4] F,8 | 
[V:1] z8 | 
[V:2] ABc2F2A2 | 
[V:3] z8 | 
[V:4] F,8 | 
[V:1] z8 | 
[V:2] G4FGAB | 
[V:3] z4F,4- | 
[V:4] E,4F,4- | 
[V:1] z8 | 
[V:2] c2d4c2- | 
[V:3] F,4F,4- | 
[V:4] F,2D,3E,F,2 | 
[V:1] z4c4 | 
[V:2] c2B3AA2 | 
[V:3] F,4_E,4 | 
[V:4] B,,2D,2C,4 | 
[V:1] d8 | 
[V:2] B8 | 
[V:3] F,8- | 
[V:4] B,,8 | 
[V:1] c2A3Bc2 | 
[V:2] z8 | 
[V:3] F,8 | 
[V:4] z8 | 
[V:1] F2f4e2 | 
[V:2] z8 | 
[V:3] F,4G,4 | 
[V:4] z8 | 
[V:1] d2g3fd2 | 
[V:2] z8 | 
[V:3] G,2E,3F,G,2 | 
[V:4] z8 | 
[V:1] e2c2d2c2- | 
[V:2] z8 | 
[V:3] C,2F,4E,2 | 
[V:4] z8 | 
[V:1] c2f4e2 | 
[V:2] z8 | 
[V:3] F,4G,4 | 
[V:4] z8 | 
[V:1] f4d4 | 
[V:2] z4B4 | 
[V:3] F,8 | 
[V:4] z4B,,4 | 
[V:1] f6f2 | 
[V:2] d6d2 | 
[V:3] z8 | 
[V:4] B,,6B,,2 | 
[V:1] e4d4 | 
[V:2] c4B4 | 
[V:3] G,8- | 
[V:4] C,4G,,4 | 
[V:1] e4z2e2 | 
[V:2] c4z2c2 | 
[V:3] G,4G,4 | 
[V:4] C,8 | 
[V:1] g6f2 | 
[V:2] e6d2 | 
[V:3] G,8- | 
[V:4] C,6C,2 | 
[V:1] e4d4 | 
[V:2] c4=B4 | 
[V:3] G,8 | 
[V:4] C,4G,,4 | 
[V:1] e8 | 
[V:2] c8 | 
[V:3] z4G,4- | 
[V:4] C,8 | 
[V:1] z4c4- | 
[V:2] z4E4- | 
[V:3] G,8- | 
[V:4] z4C,4- | 
[V:1] c4c4 | 
[V:2] E4C4 | 
[V:3] G,4F,4 | 
[V:4] C,4F,,4 | 
[V:1] A4c4- | 
[V:2] C8 | 
[V:3] F,4A,4- | 
[V:4] F,,8 | 
[V:1] c2A2B2G2 | 
[V:2] C4D2C2 | 
[V:3] A,2F,2G,2E,2 | 
[V:4] A,,4G,,2C,2 | 
[V:1] B2A4G2- | 
[V:2] D4z4 | 
[V:3] G,2F,4D,2- | 
[V:4] B,,2D,4G,,2- | 
[V:1] G2c2B2A2- | 
[V:2] z8 | 
[V:3] D,2G,2F,2E,2- | 
[V:4] G,,2_E,2D,2C,2- | 
[V:1] A2G3^F^F2 | 
[V:2] z8 | 
[V:3] E,2D,4C,2 | 
[V:4] C,B,,A,,G,,A,,4 | 
[V:1] G4d4 | 
[V:2] B8 | 
[V:3] D,8 | 
[V:4] G,,8 | 
[V:1] e4g4- | 
[V:2] c4c4 | 
[V:3] z8 | 
[V:4] z8 | 
[V:1] g2f4ed | 
[V:2] d8 | 
[V:3] D,8 | 
[V:4] B,,8 | 
[V:1] e3cg3f | 
[V:2] c3BG2A2 | 
[V:3] G,4E,4 | 
[V:4] C,8 | 
[V:1] d2B2f4- | 
[V:2] B2F2d4- | 
[V:3] F,4D,4 | 
[V:4] B,,8- | 
[V:1] f2e2d4 | 
[V:2] d2c2B4 | 
[V:3] F,8- | 
[V:4] B,,8 | 
[V:1] c4B4 | 
[V:2] A4G4 | 
[V:3] F,4D,4 | 
[V:4] F,,4G,,4 | 
[V:1] A4G4- | 
[V:2] F4B4- | 
[V:3] C,4G,4- | 
[V:4] A,,4B,,4 | 
[V:1] G4c4- | 
[V:2] B2A2G2F2 | 
[V:3] G,2F,2E,4 | 
[V:4] C,8 | 
[V:1] c4=B4 | 
[V:2] G8 | 
[V:3] D,8 | 
[V:4] G,,8 | 
[V:1] c8 |]  
[V:2] G8 |]  
[V:3] C,8 |]  
[V:4] C,8 |]  



